**kern	**text
*clefG2	*
*k[f#c#]	*
*M4/4	*
*MM190	*
=1	=1
1r	.
=2	=2
1r	.
=3	=3
1r	.
=4	=4
1r	.
=5	=5
1r	.
=6	=6
1r	.
=7	=7
1r	.
=8	=8
1r	.
=9	=9
1r	.
=10	=10
1r	.
=11	=11
1r	.
=12	=12
1r	.
=13	=13
2r	.
4r	.
8r	.
8b	- は
=14	=14
8bL	a い
8f#	i ざ
8f#	a い
8f#J	i に
8f#L	i ぱ
8f#	a い
8f#	i ぷ
[8eJ	u さ
=15	=15
8eL]	.
8d	a び
8e	i た
8eJ	a しゃ
8f#L	a り
8f#'J	i ん
8r	.
16r	.
16b	- め
=16	=16
10.bL	e い
20f#L	i め
20f#JJ	e い
20r	.
10f#L	i に
10f#J	i く
4f#'	u る
8f#L	- た
[8eJ	a か
=17	=17
12eL]	.
12e'	a い
12dJ	i が
8eL	a の
8dJ	o い
*clefF4	*
4B	i ち
8.A#X'L	i R
16BBJk	息
=18	=18
4B	- き
8dL	i ろ
*clefG2	*
8dJ	o い
8.f#L	i だ
16f#Jk	a つ
8f#	u ば
48r	.
48f#KKL	a ん
[12f#J	n に
=19	=19
4f#] 4b	i ちゅ
8aL	u しゃ
8gJ	a の
12r	.
12f#L	o は
12dJ	a り
12r	.
6d	i と
=20	=20
5%2e	o ほ
10g	- む
10r	.
5f#	u べ
10f#L	e す
[10f#J	u に
=21	=21
14f#LL]	.
14eJ	i ほ
7d	o う
7B	u し
7A	i の
14BK	o て
7.G'J	e R
14r	.
14b	- お
=22	=22
6r	.
12f#	- こ
12r	.
12f#L	o ま
[12f#J	a り
20f#KL]	.
10f#	i な
10.f#	a ら
10f#	a ば
10eJ	a あ
=23	=23
7eL	a い
7d	i つ
7e	u を
7eJ	o よ
7%2f#	o べ
14r	.
[14b	- そ
=24	=24
7bL]	.
7f#	u で
7f#	e と
7f#	u が
14f#K	a か
7f#	a こ
7f#	o む
[14eJk	u ぐ
=25	=25
6e]	.
12d	u ら
12r	.
12eL	a う
[12dJ	u ん
4B 4d]	n ど
32r	.
*clefF4	*
16.F#'	o R
8r	.
=26	=26
6B	- し
12B	i ろ
12r	.
*clefG2	*
12dL	o く
[12dJ	u ろ
4d] 4f#	u あ
16f#LL	a い
32f#L	i ま
32f#JJ	a い
8f#J	i な
=27	=27
4b	a せ
24bKL	e い
12.a	n ぎ
[12gJ	i の
12g]	.
6.f#	o ひ
6d	i ろ
=28	=28
4e	- ひ
8r	.
[8g	- だ
12gL]	.
12f#J	a り
6f#	i て
12f#L	e に
[12f#J	i わ
=29	=29
14f#LL]	.
14eJ	a き
7e	i ん
7f#	n ぞ
7f#	o く
7cc#'J	u ば
14r	.
7.b'	- と
=30	=30
1r	.
=31	=31
1r	.
=32	=32
1r	.
=33	=33
1r	.
=34	=34
1r	.
=35	=35
1r	.
=36	=36
1r	.
=37	=37
2r	.
4r	.
8r	.
8b	- の
=38	=38
8bL	o い
8f#	i ず
8f#	u だ
8f#J	a け
8f#L	e は
8f#	a い
8f#	i て
[8eJ	e い
=39	=39
8eL]	.
8d	i ぬ
8e	u ら
8eJ	a じ
4f#	i うぉ
[4b	- ふ
=40	=40
8bL]	.
16f#L	u ら
16f#JJ	a ふ
8f#L	u ら
8f#J	a に
8f#L	i ね
8f#	e うぉ
8f#	o ん
[8eJ	n ば
=41	=41
8eL]	.
8d	a に
8e	i が
8dJ	a あ
*clefF4	*
4B	a る
4G#X'	u R
=42	=42
4B	- そ
8dL	u ば
8dJ	a わ
*clefG2	*
10f#L	a お
10f#	o ぴ
10f#	i う
10f#	u む
10f#J	n の
=43	=43
4b	o た
8aL	a ね
8gJ	e ひ
8f#L	i と
8dJ	o つ
4d	u ぶ
=44	=44
4e	u うぉ
8r	.
8g	- く
8f#L	u の
8f#	o ほ
8f#	o う
8f#J	u に
=45	=45
*^	*
8eL	2r	i の
8d	.	o ま
*clefF4	*	*
8B	.	a れ
8AJ	.	e て
8BL	8r	e く
8A'J	16r	u R
.	[16C#	息
[4b	4C#]	- ひ
*v	*v	*
=46	=46
8bL]	.
*clefG2	*
8f#	i と
8f#	o つ
8f#J	u た
8f#L	a の
8f#	o む
8f#	u ぜ
[8eJ	e お
=47	=47
8eL]	.
8d	o ね
8e	e が
8eJ	a い
[8.f#L	i だ
32f#LL]	.
32eJJJ	a-uR
[4b	- か
=48	=48
8bL]	.
8f#J	a ら
16f#LL	a か
16f#J	a ら
8f#J	a の
8f#L	o り
8f#	i ん
8f#	n ご
[8eJ	o さ
=49	=49
8eL]	.
8d	a し
8e	i だ
8dJ	a し
*clefF4	*
4B	i て
8.A'L	e R
16C#'Jk	息
=50	=50
8BL	- な
8B	a ん
*clefG2	*
8d	n で
8dJ	e も
8f#L	o な
8f#J	a い
16.f#LL	i よ
32f#JK	o う
8f#J	u な
=51	=51
5b	a こ
10bL	o え
10a	e で
10gJ	e ぐ
10r	.
10f#	u ず
10r	.
5d	- て
=52	=52
4e	- さ
8r	.
8g	- て
8f#L	e ど
8f#	o こ
8f#	o に
8f#J	i も
=53	=53
8eL	o い
8f#	i け
8cc#	e な
8cc#J	a い
4b	i な
32r	.
16.g	a R
8r	.
=54	=54
4b'	- ぱ
4dd'	- ぱ
8ff#L	- ぱ
8ff#J	a ら
8r	.
8b	- ぱ
=55	=55
8r	.
8bL	- ぱ
8dd	a ぱ
8eeJ	a ら
2ff#	a ぱ
=56	=56
8r	.
8ff#L	- け
8ee	e む
8ddJ	u る
8cc#L	u じょ
8cc#	o う
8dd	u き
8eeJ	i け
=57	=57
8eeL	e ん
8dd	n そ
8b	o う
8aJ	u の
4b	o め
4a'	e R
=58	=58
4b'	- ぱ
4dd'	- ぱ
8ff#L	- ぱ
8ff#J	a ら
8r	.
8b	- ぱ
=59	=59
8r	.
8bL	- ぱ
8dd	a ぱ
8eeJ	a ら
4ff#	a ぱ
4r	.
=60	=60
8r	.
8ff#L	- こ
8ee	o こ
8ddJ	o で
8cc#L	e と
8cc#	o う
8dd	u じょ
8eeJ	o う
=61	=61
8bL	u ぴ
8bJ	i ん
24bKL	n ち
12.ff#J	i ひ
12r	.
4b	- た
8r	.
8D	息
=62	=62
12r	.
12b	- ぱ
6r	.
6dd'	- ぱ
12r	.
12ff#L	- ぱ
12ff#J	a ら
12r	.
12r	.
12b	- ぱ
=63	=63
6r	.
12b	- ぱ
12r	.
12ddL	a ぱ
[12eeJ	a ら
4ee] [4ff#	a ぱ
4ff#]	.
=64	=64
8r	.
8ff#L	- あ
8ee	a れ
8ddJ	e わ
4cc#'	a き
8ddL	- と
8eeJ	o ぱ
=65	=65
8eeL	a ん
8dd	n だ
8b	a ひ
8aJ	i い
4b	i ろ
4a#X'	o R
=66	=66
4b'	- ぱ
4dd'	- ぱ
6ff#	- ぱ
12ff#	a ら
12r	.
12r	.
12b	- ぱ
=67	=67
8r	.
8bL	- ぱ
8dd	a ぱ
8eeJ	a ら
2ff#	a ぱ
=68	=68
8r	.
8ff#L	- さ
8ee	a ら
8ddJ	a ば
8cc#L	a うぉ
8cc#	o と
8dd	o と
8eeJ	o い
=69	=69
8bL	i さ
8b	a つ
8dd	u じ
8ddJ	i ん
8ggL	n ら
8ggJ	a い
4ff#	i な
=70	=70
4ee'	a R
4r	.
2r	.
=71	=71
1r	.
=72	=72
1r	.
=73	=73
1r	.
=74	=74
1r	.
=75	=75
1r	.
=76	=76
1r	.
=77	=77
1r	.
=78	=78
1r	.
=79	=79
8f#L	- か
8f#	a に
8f#	i ば
8f#J	a り
8f#L	i ず
8f#	u む
8e	u と
8dJ	o こ
=80	=80
8eL	o と
8d	o ば
8e	a だ
8f#J	a け
8r	.
8dL	- う
8e	u た
8dJ	a う
=81	=81
8f#L	u あ
8f#	a ん
8f#	n ど
8f#J	o ろ
8f#L	o い
8e	i ど
8d	o と
8dJ	u あ
=82	=82
8eL	a そ
8e	o ん
8d	n で
8BJ	e る
8r	.
8d	- き
8r	.
8d	- と
=83	=83
8f#L	o き
8f#	i ら
8f#	a わ
8f#J	a れ
8f#L	e て
8e	e ん
8d	n だ
8dJ	u わ
=84	=84
8eL	a が
8dJ	a ひ
4e'	i い
8f#L	i ろ
8dJ	- き
8r	.
8d	- と
=85	=85
8f#L	o の
8f#	o ぞ
8f#	o ま
8f#J	a れ
8f#L	e て
8e	e ん
8d	n だ
8dJ	a ほ
=86	=86
8eL	o ら
8dJ	a ひ
4B'	i い
4B'	i ろ
4r	.
=87	=87
8f#L	- か
8f#	a に
8f#	i ば
8f#J	a り
8f#L	i ず
8f#	u む
8e	u と
8dJ	o こ
=88	=88
8eL	o と
8d	o ば
8e	a だ
8f#J	a け
8r	.
8dL	- う
8e	u た
8dJ	a う
=89	=89
8f#L	u あ
8f#	a ん
8f#	n ど
8f#J	o ろ
8f#L	o い
8e	i ど
8d	o と
8dJ	o あ
=90	=90
8eL	a そ
8e	o ん
8d	n で
8BJ	e る
8r	.
8d	- き
8r	.
8d	- と
=91	=91
8f#L	o き
8f#	i ら
8f#	a わ
8f#J	a れ
8f#L	e て
8e	e ん
8d	n だ
8dJ	a わ
=92	=92
8eL	a が
8dJ	a ひ
4e'	i い
8f#L	i ろ
8f#J	o き
8r	.
8g	- と
=93	=93
8bL	o の
8b	o ぞ
8b	o ま
8bJ	a れ
8bL	e て
8b	e ん
8dd	n だ
8ddJ	a ほ
=94	=94
8cc#L	o ら
8f#J	a ひ
4g'	i い
8bL	i ろ
8bJ	o R
4r	.
=95	=95
2r	.
4r	.
8r	.
8D#X'	息
=96	=96
12r	.
12b	- ぱ
6r	.
6dd'	- ぱ
12r	.
12ff#L	- ぱ
12ff#J	a ら
12r	.
12r	.
12b	- ぱ
=97	=97
6r	.
12b	- ぱ
12r	.
12ddL	a ぱ
[12eeJ	a ら
4ee] [4ff#	a ぱ
4ff#]	.
=98	=98
7r	.
7ff#L	- ね
7ee	e ら
7dd	a い
14cc#K	i く
7cc#	u ら
7dd	a む
14eeJk	u さ
=99	=99
6ee	a ん
12dd	n ゆ
12r	.
12bL	u う
[12aJ	u か
4a] 4b	a ん
4a#X'	n R
=100	=100
4b'	- ぱ
4dd'	- ぱ
8ff#L	- ぱ
8ff#J	a ら
8r	.
8b	- ぱ
=101	=101
8r	.
8bL	- ぱ
8dd	a ぱ
8eeJ	a ら
2ff#	a ぱ
=102	=102
8r	.
8ff#L	- こ
8ee	o こ
8ddJ	o で
8cc#L	e と
8cc#	o う
8dd	u じょ
8eeJ	o う
=103	=103
*^	*
8bL	8r	u ぴ
16.bJk	16r	i ん
.	32r	.
32r	[32b	.
8ff#L	4b]	i ら
8ff#J	.	a ん
4b	2r	n な
4a#X'	.	a R
*v	*v	*
=104	=104
48r	.
*clefF4	*
48CnKKL	息
*clefG2	*
12bJ	- ぱ
8r	.
4dd'	- ぱ
6ff#	- ぱ
12ff#	a ら
12r	.
12r	.
12b	- ぱ
=105	=105
8r	.
8bL	- ぱ
8dd	a ぱ
8eeJ	a ら
3ff#	a ぱ
6ffn	a R
=106	=106
7r	.
7ff#L	- つ
7ee	u ま
7dd	a り
14cc#K	i に
7cc#	i て
7dd	e ん
14eeJk	n び
=107	=107
5r	.
10ddL	- は
10b	a い
10aJ	i ん
10r	.
5b	n ど
5a#X'	o R
=108	=108
4b'	- ぱ
4dd'	- ぱ
6ff#	- ぱ
12ff#	a ら
12r	.
12r	.
12b	- ぱ
=109	=109
8r	.
8bL	- ぱ
8dd	a ぱ
8eeJ	a ら
2ff#	a ぱ
=110	=110
8r	.
8ff#L	- う
8ee	u ま
8ddJ	a く
8cc#L	u い
8cc#	i か
8dd	a な
8eeJ	a い
=111	=111
8bL	i か
8bJ	a ん
4dd	n じょ
4gg	o せ
8.ff#L	e げ
16ff#Jk	e ん
=112	=112
4gg'	n R
4r	.
2r	.
=113	=113
2r	.
12r	.
12b	- か
6b	a ん
[6dd	n じょ
=114	=114
12dd]	.
6.gg	u せ
6ff#	e げ
16.ff#LL	e ん
32gg#XJJk	n R
8r	.
4r	.
=115	=115
1r	.
=116	=116
1r	.
=117	=117
8bL	- か
8bJ	a ん
4dd	n じょ
4gg	o せ
8ff#L	e げ
8ff#J	e ん
=118	=118
1r	.
=119	=119
8bL	- か
8bJ	a ん
4dd	n じょ
4gg	o せ
8ff#L	e げ
8ff#J	e ん
=120	=120
1r	.
=121	=121
1r	.
=122	=122
1r	.
=123	=123
1r	.
=124	=124
1r	.
=125	=125
1r	.
=126	=126
1r	.
=127	=127
*^	*
1r	2r	.
.	4r	.
.	[4b	n ば
=128	=128	=128
2r	8bL]	.
.	8f#	a け
.	8f#	e つ
.	8f#J	u か
8r	4f#'	.
4.f#'	.	- た
.	[4e	a ね
=129	=129	=129
1r	8eL]	.
.	8d	e こ
.	8e	o が
.	8eJ	a な
.	4f#	a く
.	[4b	- ひ
=130	=130	=130
1r	8bL]	.
.	16f#L	i と
.	16f#JJ	o り
.	8f#L	i ま
.	8f#J	a た
.	8f#L	a ひ
.	8f#	- と
.	8f#	- り
.	[8eJ	i き
=131	=131	=131
1r	8eL]	.
.	8d	i え
.	8e	e て
.	8dJ	e い
.	4B	i く
.	4r	.
*v	*v	*
=132	=132
8BL	- い
8BJ	i ま
6d	a さ
12d	a ら
8f#L	a ど
16f#L	o う
16f#JJ	u し
12f#L	i よ
12f#	o う
12f#J	u も
=133	=133
6b	o な
12b	a い
12r	.
12aL	- こ
12gJ	o の
4f#	o げ
4d	e む
=134	=134
4e	- さ
8r	.
8g	- て
6f#	e ど
12f#	o こ
12r	.
12f#L	o に
12f#J	i も
=135	=135
6e	- い
12f#	i け
12r	.
12cc#L	e な
12cc#J	a い
4b	i な
4g'	a R
=136	=136
12r	.
12b	- ぱ
6r	.
6dd'	- ぱ
12r	.
12ff#L	- ぱ
12ff#J	a ら
12r	.
12r	.
12b	- ぱ
=137	=137
6r	.
12b	- ぱ
12r	.
12ddL	a ぱ
[12eeJ	a ら
4ee] [4ff#	a ぱ
4ff#]	.
=138	=138
7r	.
7ff#L	- が
7ee	a な
14ddJk	a る
14r	.
14cc#KL	u ば
7cc#	a い
7dd	i た
14eeJk	a ぼ
=139	=139
6ee	o う
12dd	u げ
12r	.
12bL	e ん
[12aJ	n の
4a] 4b	o め
4r	.
=140	=140
4b'	- ぱ
4dd'	- ぱ
8ff#L	- ぱ
8ff#J	a ら
8r	.
8b	- ぱ
=141	=141
8r	.
8bL	- ぱ
8dd	a ぱ
8eeJ	a ら
2ff#	a ぱ
=142	=142
8r	.
8ff#L	- ぶ
8ee	u ざ
8ddJ	a あ
8cc#L	a く
8cc#	u も
8dd	o の
8eeJ	o こ
=143	=143
*^	*
8.b	8r	o け
.	16r	.
16r	[16b	.
4ff#	4b]	i ほ
4b	2r	u と
16r	.	.
8.a#X'	.	o R
*v	*v	*
=144	=144
4b'	- ぱ
4dd'	- ぱ
6ff#	- ぱ
12ff#	a ら
12r	.
12r	.
12b	- ぱ
=145	=145
8r	.
8bL	- ぱ
8dd	a ぱ
8eeJ	a ら
2ff#	a ぱ
=146	=146
5r	.
10ff#L	- あ
10ee	a れ
10ddJ	e わ
10r	.
10cc#	a き
10r	.
10ddL	- と
[10eeJ	o ぱ
=147	=147
14eeLL]	.
14eeJ	a ん
7dd	n だ
7b	a ひ
7aJ	i い
7%2b	i ろ
14r	.
14BB	息
*clefF4	*
*clefG2	*
=148	=148
4ryy	- ぱ
4dd'	- ぱ
6ff#	- ぱ
12ff#	a ら
12r	.
12r	.
12bb	- ぱf
=149	=149
8r	.
8ff#L	- ぱ
8ff#	a ぱ
8eeJ	a ら
2ff#	a ぱ
=150	=150
8r	.
8ff#L	- さ
8ee	a ら
8ddJ	a ば
8cc#L	a うぉ
8cc#	o と
8dd	o と
8eeJ	o い
=151	=151
8bL	i さ
8b	a つ
8dd	u じ
8ddJ	i ん
8ggL	n ら
8ggJ	a い
4ff#	i な
=152	=152
4r	.
4f#	- こ
4g#X	o わ
4a#X	a し
=153	=153
4b	i て
4a#X	e ま
4b	a わ
4cc#	a れ
=154	=154
4b	e ぶ
4cc#	u ら
4dd	a う
4ee	u ん
=155	=155
4.ff#	n か
8ff#'	a ん
2r	.
=156	=156
1r	.
=157	=157
1r	.
=158	=158
1r	.
=159	=159
1r	.
=160	=160
1r	.
=161	=161
1r	.
=162	=162
1r	.
=163	=163
1r	.
=164	=164
1r	.
=165	=165
1r	.
=166	=166
8r	.
8ff#L	- さ
8ee	a ら
8ddJ	a ば
8cc#L	a うぉ
8cc#	o と
8dd	o と
8eeJ	o い
=167	=167
8bL	i さ
8b	a つ
8dd	u じ
8ddJ	i ん
8ggL	n ら
8ggJ	a い
4ff#	i な
=168	=168
4ffn'	a R
4r	.
2r	.
==	==
*-	*-
